static/icons/speed.svg

<svg width="24" height="16" viewBox="0 0 24 16" fill="none" xmlns="http://www.w3.org/2000/svg">
<path d="M23.9966 14.7277L23.9912 14.5705C23.9893 14.5179 23.9873 14.4652 23.9854 14.4122L23.9839 14.3725L23.9831 14.3527L23.9829 14.3477L23.9824 14.3032L23.9822 14.3011L23.9816 14.2929L23.9765 14.227L23.956 13.9626L23.9508 13.8958L23.9429 13.8091L23.9266 13.6364L23.9097 13.4647L23.901 13.3793L23.8905 13.3005C23.8618 13.0922 23.8361 12.8876 23.7994 12.6909C23.7821 12.5925 23.7661 12.4957 23.7481 12.4014L23.6905 12.1256C23.6551 11.9463 23.6106 11.7788 23.5732 11.624L23.545 11.5106L23.515 11.4028C23.4953 11.333 23.4766 11.2666 23.4589 11.2044C23.441 11.1422 23.4252 11.0839 23.4087 11.0304L23.3619 10.8837L23.3094 10.7207C23.2995 10.69 23.278 10.6643 23.2495 10.6491C23.221 10.6339 23.1878 10.6304 23.1567 10.6393L19.0991 11.7956C19.0693 11.804 19.0437 11.8233 19.0274 11.8497C19.011 11.876 19.0051 11.9075 19.0108 11.938L19.0258 12.0188L19.045 12.1197C19.0516 12.1566 19.0567 12.1969 19.0634 12.2395L19.0841 12.3755C19.0877 12.3994 19.0919 12.4238 19.0952 12.449L19.1041 12.5266C19.1154 12.6323 19.1322 12.7456 19.1398 12.8671L19.1551 13.0531C19.1591 13.1167 19.1611 13.1819 19.1644 13.2478C19.1732 13.3795 19.1716 13.5166 19.1741 13.6549L19.1747 13.7064L19.1729 13.752L19.1697 13.8434L19.1672 13.9348L19.1663 13.9805L19.1635 14.0462C19.1598 14.1347 19.156 14.2231 19.1522 14.3112L19.1494 14.3773L19.149 14.3855L19.1489 14.3875C19.149 14.3974 19.1482 14.3089 19.1484 14.3471L19.1481 14.3504L19.1469 14.3634L19.1445 14.3895L19.1351 14.4931L19.1261 14.5957C19.1221 14.6296 19.1181 14.6634 19.114 14.6969C19.1054 14.7638 19.1001 14.8301 19.0895 14.8947L19.0619 15.0851L19.0304 15.2661C19.0212 15.325 19.0088 15.3817 18.9978 15.4366C18.9863 15.4913 18.9771 15.5445 18.9652 15.595C18.9489 15.6654 18.9327 15.7357 18.9164 15.8061L18.9016 15.8597L18.8933 15.8906H23.8559C23.9225 15.8906 23.9779 15.8384 23.9804 15.7719L23.9804 15.7707L23.9932 15.4864L23.9988 15.1898C24.0016 15.0892 23.9986 14.987 23.9983 14.8836C23.9977 14.8319 23.9972 14.78 23.9966 14.7277ZM22.7062 9.51901C22.722 9.5127 22.7363 9.50322 22.7483 9.49117C22.7603 9.47912 22.7696 9.46475 22.7758 9.44895C22.782 9.43314 22.7849 9.41622 22.7844 9.39925C22.7838 9.38228 22.7797 9.36561 22.7725 9.35025L22.7248 9.24961C22.706 9.21007 22.6872 9.17051 22.6685 9.13094L22.5827 8.95622C22.5518 8.8941 22.519 8.82799 22.4843 8.75831C22.4668 8.72209 22.4495 8.6922 22.4315 8.6582L22.3762 8.55621C22.3384 8.48689 22.2997 8.41441 22.2582 8.34019C22.214 8.26439 22.1697 8.18858 22.1255 8.11277L22.0561 7.99443L21.9816 7.87512L21.8272 7.62991C21.7166 7.46696 21.6065 7.29654 21.4837 7.13069C21.4535 7.08893 21.4232 7.04702 21.3928 7.00498L21.3471 6.94197L21.2995 6.88L21.108 6.63212C21.0429 6.55034 20.9756 6.47029 20.9097 6.38992C20.8763 6.35001 20.844 6.30951 20.81 6.2705L20.7079 6.15422C20.674 6.11574 20.6402 6.07734 20.6066 6.03917C20.5735 6.00094 20.5395 5.96346 20.5047 5.92675L20.3011 5.70987C20.2341 5.63888 20.1648 5.57216 20.0988 5.50546C20.0324 5.43912 19.9678 5.37397 19.9019 5.31346L19.7119 5.13561C19.6508 5.07804 19.5884 5.02574 19.5303 4.97395L19.3622 4.82695L19.2066 4.69879L19.0698 4.58657C19.0275 4.55203 18.987 4.5221 18.9513 4.49418C18.9077 4.46073 18.8641 4.42727 18.8205 4.39381C18.7949 4.37419 18.7627 4.36526 18.7307 4.36892C18.6986 4.37258 18.6692 4.38853 18.6487 4.41341L16.471 7.04952C16.4511 7.07346 16.441 7.10395 16.4425 7.135C16.444 7.16604 16.4571 7.19539 16.4792 7.21726C16.4974 7.23525 16.5185 7.25607 16.5421 7.27949C16.5648 7.30225 16.5907 7.32635 16.6174 7.35449L16.7035 7.44554L16.8015 7.54857L16.9063 7.66654C16.9423 7.70803 16.9817 7.74921 17.0192 7.79513L17.1363 7.93592C17.1773 7.98337 17.2164 8.03488 17.2568 8.08692C17.2969 8.13932 17.3397 8.19098 17.3799 8.24638L17.5025 8.41458C17.5236 8.4429 17.5439 8.47183 17.5633 8.50134L17.6235 8.58991C17.6437 8.61942 17.6639 8.64908 17.6842 8.67884C17.7045 8.7086 17.7231 8.73972 17.7426 8.77016C17.7811 8.8316 17.8209 8.89213 17.8587 8.954L17.9691 9.1412L17.9967 9.18764L18.0224 9.23505L18.0739 9.32921C18.1445 9.45272 18.2041 9.58007 18.2665 9.69972L18.3506 9.8804L18.3914 9.96763L18.4282 10.0543C18.4526 10.111 18.4763 10.1663 18.4993 10.2197L18.5606 10.3763L18.5894 10.4499C18.5983 10.4732 18.6094 10.4986 18.6153 10.518L18.655 10.6343L18.6907 10.7357L18.7305 10.8544L18.7657 10.9601C18.7711 10.9762 18.7797 10.991 18.7911 11.0037C18.8024 11.0163 18.8162 11.0265 18.8316 11.0336C18.847 11.0407 18.8637 11.0446 18.8807 11.045C18.8977 11.0455 18.9146 11.0424 18.9303 11.0361L22.7062 9.51901ZM11.6162 4.81045L11.7254 4.82535L11.8533 4.84764L11.9985 4.87257C12.0429 4.87995 12.0889 4.89066 12.1367 4.90066L13.5112 2.08934L13.3092 2.05781C13.2639 2.05106 13.2192 2.04331 13.1747 2.03775L13.0429 2.02178L12.7905 1.99179L12.5541 1.97153C12.4783 1.96572 12.4061 1.95807 12.3369 1.95478L12.1407 1.94513L11.9684 1.937L11.8221 1.93465L11.6649 1.93275C11.6327 1.93237 11.6015 1.94452 11.5781 1.96664C11.5546 1.98877 11.5407 2.01915 11.5391 2.05136L11.4138 4.66804C11.4123 4.69912 11.4225 4.72965 11.4424 4.7536C11.4622 4.77755 11.4904 4.79318 11.5212 4.79741L11.6162 4.81045ZM15.3101 6.25128C15.3471 6.27813 15.3821 6.3036 15.415 6.32757L15.5073 6.39369C15.5196 6.40218 15.54 6.41764 15.5567 6.43002L15.6056 6.4666L15.6949 6.53319C15.7085 6.54334 15.7241 6.5506 15.7406 6.55452C15.7571 6.55844 15.7743 6.55893 15.791 6.55598C15.8077 6.55302 15.8236 6.54667 15.8378 6.53732C15.852 6.52797 15.8641 6.51582 15.8734 6.50161L17.6678 3.76824C17.6772 3.75407 17.6835 3.73812 17.6865 3.7214C17.6894 3.70467 17.6889 3.68752 17.685 3.671C17.681 3.65448 17.6738 3.63894 17.6636 3.62534C17.6534 3.61173 17.6406 3.60036 17.6259 3.59191L17.5293 3.53651L17.4762 3.50606L17.4128 3.47017L17.2475 3.37912C17.1885 3.34696 17.1257 3.31275 17.0595 3.27665C16.9933 3.24349 16.9271 3.21032 16.8609 3.17714C16.7914 3.14324 16.7205 3.10552 16.6445 3.07129L16.4103 2.96392C16.3304 2.92623 16.2461 2.89199 16.1606 2.85607C16.0747 2.8209 15.9883 2.78245 15.898 2.74853L15.8289 2.72235L15.0548 6.08229C15.0976 6.10917 15.1379 6.13767 15.1776 6.16339L15.3101 6.25128ZM9.20673 4.79676C9.24139 4.79218 9.27542 4.78652 9.3094 4.78294L9.41005 4.77271L9.60253 4.75272L9.78296 4.74062L9.86767 4.73484C9.8952 4.73299 9.92279 4.73064 9.94644 4.73062L10.0849 4.72701L10.2061 4.72317L10.3331 4.72233L10.4444 4.72172C10.4614 4.72163 10.4782 4.71806 10.4937 4.71123C10.5093 4.70441 10.5233 4.69447 10.5348 4.68204C10.5464 4.6696 10.5553 4.65493 10.561 4.63893C10.5666 4.62293 10.569 4.60593 10.5679 4.58899L10.4063 2.12407C10.4052 2.10713 10.4007 2.09058 10.393 2.07546C10.3853 2.06034 10.3745 2.04696 10.3614 2.03614C10.3483 2.02532 10.3332 2.0173 10.3169 2.01256C10.3006 2.00782 10.2835 2.00647 10.2666 2.00859L10.1561 2.02254L10.0276 2.03891L9.84864 2.06544L9.64568 2.09636C9.6091 2.10151 9.57542 2.10836 9.54008 2.11503L9.43198 2.13567L9.20269 2.17998L8.9591 2.23546L8.83231 2.26461C8.78956 2.27461 8.74669 2.28684 8.70321 2.29808L8.4377 2.36882L8.16594 2.45075C8.12017 2.46492 8.07391 2.47829 8.02793 2.49342L7.88982 2.54053L7.75087 2.58816C7.70439 2.60397 7.65783 2.61986 7.6119 2.63797L7.33494 2.7437C7.24291 2.77973 7.15239 2.81964 7.06167 2.85741C7.01645 2.87668 6.9711 2.89528 6.92641 2.91506L6.7937 2.97632L6.66231 3.03718C6.61873 3.05734 6.57533 3.0772 6.53314 3.0991L6.28255 3.22562C6.20027 3.26687 6.12186 3.3124 6.04397 3.35431C5.96644 3.397 5.89019 3.43773 5.81827 3.48161L5.60752 3.60664C5.53926 3.64645 5.47595 3.68945 5.41391 3.7283L5.23709 3.84166L5.08102 3.94878L4.94414 4.04303C4.9019 4.07216 4.86454 4.10104 4.8301 4.126L4.71137 4.21366C4.68548 4.23278 4.66802 4.26119 4.66264 4.29292C4.65727 4.32465 4.6644 4.35723 4.68254 4.38381L5.70608 5.88863C5.7236 5.91447 5.75019 5.93278 5.78059 5.93991C5.81098 5.94704 5.84295 5.94248 5.87013 5.92713L5.96189 5.87536C5.99243 5.85846 6.02548 5.83851 6.06279 5.81908C6.10008 5.79963 6.1404 5.77866 6.18347 5.75622L6.32032 5.68468L6.4746 5.61071C6.52862 5.58555 6.58341 5.55672 6.6425 5.53158L6.82412 5.45188C6.88584 5.42346 6.95122 5.39862 7.01736 5.3721C7.08385 5.34633 7.15044 5.31718 7.22019 5.29254L7.43175 5.2163C7.46719 5.20284 7.50367 5.19144 7.54023 5.17977L7.6502 5.14438L7.7608 5.1086C7.79799 5.09731 7.83571 5.08721 7.87317 5.07639C7.94843 5.05558 8.02318 5.03249 8.09897 5.01313L8.32619 4.95692C8.36368 4.94695 8.40172 4.93914 8.43959 4.93133L8.55265 4.90754L8.66454 4.88379C8.70175 4.87636 8.73916 4.87063 8.77607 4.86398L8.99455 4.82606L9.20673 4.79676ZM2.22757 6.74237L2.14676 6.85671L2.06551 6.97188C2.03845 7.01046 2.01314 7.05048 1.98682 7.08984C1.93493 7.16909 1.88182 7.24773 1.83099 7.32787L1.68227 7.57001L1.64539 7.63029L1.61037 7.69155L1.5408 7.81337C1.44631 7.97387 1.36423 8.13793 1.28081 8.29375L1.1664 8.52784L1.11137 8.64122L1.06087 8.75341L0.964444 8.96825L0.880343 9.17149C0.853918 9.23682 0.827215 9.29864 0.804453 9.35864L0.740613 9.52922L0.684731 9.67903L0.640925 9.80746L0.596942 9.93803C0.586684 9.96848 0.588608 10.0017 0.602312 10.0308C0.616016 10.0599 0.640437 10.0825 0.670457 10.0939L1.62313 10.4592C1.68376 10.4824 1.75205 10.4553 1.78006 10.3967L1.82963 10.2931L1.882 10.1842L1.94758 10.0577C1.97093 10.0128 1.99573 9.96478 2.02191 9.91425C2.04828 9.86388 2.07865 9.81221 2.10879 9.75765L2.20403 9.58826L2.31145 9.41033L2.36728 9.31766C2.38711 9.28697 2.40719 9.25595 2.42748 9.22449L2.55167 9.03275C2.64126 8.90593 2.72887 8.77236 2.82788 8.64354L2.90068 8.54555L2.93719 8.49636L2.97544 8.44826L3.12863 8.25543C3.1807 8.19186 3.23474 8.12995 3.28726 8.06749C3.31389 8.0365 3.33945 8.00487 3.36671 7.97473L3.44826 7.88474L3.52898 7.79554C3.55523 7.76581 3.58228 7.7368 3.6101 7.70853L3.77206 7.54078C3.82514 7.48579 3.88054 7.43476 3.93283 7.38317C3.98553 7.33196 4.03651 7.28143 4.08901 7.23513L4.23948 7.0982C4.28768 7.05371 4.33735 7.014 4.38322 6.97413L4.51575 6.86126C4.55708 6.82854 4.59629 6.79752 4.63313 6.76831C4.66734 6.74108 4.70155 6.71384 4.73575 6.68659C4.7503 6.67456 4.77 6.66016 4.78665 6.64751L4.83548 6.61067L4.92436 6.5436C4.93791 6.53337 4.94922 6.52047 4.9576 6.5057C4.96598 6.49093 4.97125 6.47461 4.97308 6.45772C4.97492 6.44084 4.97327 6.42377 4.96826 6.40754C4.96324 6.39132 4.95496 6.3763 4.94391 6.3634L3.85924 5.09269C3.84823 5.07976 3.8347 5.06922 3.81946 5.06172C3.80423 5.05422 3.78762 5.04992 3.77066 5.04908C3.7537 5.04824 3.73675 5.05088 3.72085 5.05684C3.70495 5.06279 3.69044 5.07194 3.67821 5.08372L3.59802 5.16097L3.55396 5.20339C3.53827 5.21863 3.52334 5.23249 3.50389 5.25238L3.38354 5.37384L3.24732 5.51203L3.10693 5.66409C3.05863 5.71747 3.00654 5.77126 2.95614 5.83022L2.79945 6.01186C2.74501 6.07345 2.69234 6.13962 2.63815 6.20674C2.58436 6.27422 2.52767 6.34155 2.47359 6.41289C2.41965 6.48423 2.36483 6.55676 2.30935 6.63023C2.28117 6.66693 2.2539 6.70432 2.22757 6.74237ZM0.256547 11.1976L0.234366 11.3067C0.225855 11.3486 0.217341 11.3905 0.208825 11.4324C0.199705 11.4792 0.190787 11.5345 0.180833 11.5909L0.149659 11.7723C0.144353 11.8041 0.13829 11.837 0.133263 11.8701L0.11957 11.9712C0.101785 12.109 0.0783661 12.2572 0.0648756 12.4155L0.0407999 12.6583C0.0340294 12.7412 0.0295073 12.8262 0.0236715 12.9123C0.0100295 13.0843 0.0075284 13.2628 0.00184421 13.4433L0 13.5112L0.00032842 13.5793C0.00085277 13.6706 0.00137487 13.7619 0.00189473 13.8532L0.00232421 13.9218L0.00495157 13.9905L0.0160926 14.2644L0.0188968 14.3325L0.0197557 14.3545L0.0209684 14.3709L0.0233936 14.4038L0.0330441 14.5346L0.0426189 14.6644L0.0556546 14.7986L0.0686904 14.9309L0.0752083 14.9963L0.0832924 15.0602L0.114998 15.3096L0.151604 15.5474C0.16272 15.6246 0.177044 15.6993 0.190206 15.7715L0.19344 15.7888C0.19873 15.8174 0.213872 15.8432 0.236236 15.8618C0.258601 15.8804 0.286774 15.8906 0.315865 15.8906H0.651636C0.668614 15.8906 0.685412 15.8871 0.701 15.8804C0.716589 15.8737 0.730637 15.8638 0.742285 15.8515C0.753932 15.8391 0.762931 15.8245 0.76873 15.8086C0.774529 15.7926 0.777005 15.7756 0.776007 15.7587C0.77487 15.7396 0.773708 15.7203 0.772419 15.7008C0.768226 15.6312 0.763173 15.5594 0.761556 15.4853L0.754104 15.2577C0.753483 15.1583 0.752876 15.0589 0.752285 14.9595L0.753624 14.8992L0.756302 14.7777L0.759005 14.6547L0.765068 14.5247L0.771156 14.3937L0.772697 14.3608L0.773455 14.3443L0.773556 14.3422C0.773556 14.337 0.773657 14.347 0.773708 14.3453L0.774011 14.3413L0.774643 14.3334L0.779746 14.2697L0.800133 14.0141L0.805337 13.9502L0.812689 13.8865L0.827341 13.7595L0.841868 13.6332L0.849068 13.5703L0.85839 13.5079C0.883956 13.3419 0.905682 13.1786 0.937514 13.0223C0.952444 12.944 0.965808 12.867 0.981143 12.7919L1.03005 12.573C1.05946 12.4305 1.09758 12.298 1.1286 12.1752L1.15195 12.0852C1.15998 12.0564 1.16865 12.029 1.17663 12.0019L1.22236 11.8489C1.23703 11.8004 1.24908 11.7571 1.26313 11.7136L1.30358 11.5918L1.33867 11.4861C1.34401 11.47 1.346 11.4529 1.34452 11.436C1.34303 11.4191 1.3381 11.4027 1.33002 11.3878C1.32195 11.3728 1.3109 11.3597 1.29756 11.3492C1.28423 11.3387 1.26888 11.331 1.25247 11.3267L0.410728 11.1022C0.394324 11.0978 0.377193 11.0968 0.360389 11.0993C0.343585 11.1017 0.327464 11.1076 0.31302 11.1166C0.298576 11.1255 0.286114 11.1373 0.276401 11.1512C0.266689 11.1652 0.259932 11.1809 0.256547 11.1976ZM9.78483 15.5605C10.0587 15.6943 10.3488 15.7578 10.6344 15.7578C11.3513 15.7578 12.0403 15.3583 12.3763 14.6709C12.4411 14.5386 12.4912 14.3925 12.5238 14.2549L14.4836 5.74837L15.23 2.5088L15.6924 0.501978C15.7462 0.268421 15.5604 0.109314 15.374 0.109314C15.2649 0.109314 15.1555 0.163857 15.0939 0.289895L14.153 2.21451L12.7649 5.05373L8.89524 12.9689C8.42527 13.9302 8.82357 15.0905 9.78483 15.5605ZM10.7062 12.8211C11.2307 12.8211 11.6558 13.2462 11.6558 13.7707C11.6558 14.2951 11.2307 14.7203 10.7062 14.7203C10.1818 14.7203 9.75664 14.2951 9.75664 13.7707C9.75664 13.2462 10.1818 12.8211 10.7062 12.8211Z" fill="black"/>
</svg>

<svg xmlns="http://www.w3.org/2000/svg" width="24" height="16" fill="none"><path fill="#000" d="m23.997 14.728-.006-.158-.006-.158-.001-.04v-.02l-.001-.004V14.3l-.001-.008-.005-.066-.021-.264-.005-.067-.008-.087-.016-.173-.017-.171-.009-.086-.01-.079c-.03-.208-.055-.412-.092-.61l-.05-.289-.058-.275c-.036-.18-.08-.347-.118-.502l-.028-.113-.03-.108-.056-.199-.05-.174-.047-.146-.053-.163a.125.125 0 0 0-.152-.082l-4.058 1.157a.124.124 0 0 0-.088.142l.015.08.019.102c.007.037.012.077.018.12l.021.136.011.073.01.078c.01.105.027.219.035.34l.015.186.01.195c.008.132.007.269.01.407v.051l-.002.046-.003.091-.003.092v.045l-.004.066-.01.265-.004.066v.01-.04.003l-.002.013-.002.027-.01.103-.009.103a23.59 23.59 0 0 1-.012.1c-.009.068-.014.134-.024.199l-.028.19-.032.181c-.009.059-.021.116-.032.17-.012.055-.02.108-.033.159l-.049.211-.014.054-.009.03h4.963a.124.124 0 0 0 .124-.118v-.001l.013-.285.006-.296c.003-.1 0-.203 0-.306l-.002-.156Zm-1.29-5.209a.125.125 0 0 0 .066-.169l-.048-.1a55.72 55.72 0 0 1-.056-.12l-.086-.174-.099-.198c-.017-.036-.035-.066-.053-.1l-.055-.102c-.038-.07-.076-.142-.118-.216l-.133-.227-.069-.119-.074-.119-.155-.245c-.11-.163-.22-.333-.343-.5l-.091-.125-.046-.063-.048-.062-.191-.248c-.065-.082-.132-.162-.198-.242l-.1-.12-.102-.116-.101-.115a3.366 3.366 0 0 0-.102-.112L20.3 5.71c-.067-.071-.136-.138-.202-.205-.067-.066-.131-.131-.197-.192l-.19-.177c-.061-.058-.124-.11-.182-.162l-.168-.147-.155-.128-.137-.112c-.043-.035-.083-.065-.119-.093l-.13-.1a.124.124 0 0 0-.172.02L16.47 7.05a.124.124 0 0 0 .008.167l.063.062c.023.023.049.047.075.075l.086.092.099.103.104.118c.036.041.076.082.113.128l.117.14c.041.048.08.1.12.152.04.052.084.104.124.16l.123.168.06.086.06.089.061.089.059.091.116.184.11.187.028.047.025.047.052.094c.07.124.13.251.192.37l.085.181.04.088.037.086.071.166.062.156.028.074c.01.023.02.049.026.068l.04.116.036.102.04.118.035.106a.124.124 0 0 0 .164.076l3.776-1.517ZM11.616 4.81l.108.015.128.023.146.025c.044.007.09.018.138.028l1.374-2.812-.202-.031c-.045-.007-.09-.015-.134-.02l-.132-.016-.252-.03-.237-.02c-.076-.006-.148-.014-.217-.017l-.196-.01-.173-.008-.146-.002-.157-.002a.124.124 0 0 0-.126.118l-.125 2.617a.124.124 0 0 0 .107.13l.095.012Zm3.693 1.441.105.077.092.066c.013.008.033.024.05.036l.049.037.089.066a.125.125 0 0 0 .178-.031l1.795-2.734a.124.124 0 0 0-.042-.176l-.097-.055-.053-.03-.063-.037-.166-.09c-.058-.033-.121-.067-.188-.103l-.198-.1c-.07-.034-.14-.071-.216-.106l-.235-.107c-.08-.038-.164-.072-.25-.108-.085-.035-.172-.074-.262-.107l-.07-.027-.773 3.36c.043.027.083.056.123.081l.132.088ZM9.207 4.797l.102-.014.101-.01.193-.02.18-.012.085-.006c.027-.002.055-.004.078-.004l.139-.004.121-.004h.127l.111-.001a.124.124 0 0 0 .124-.133l-.162-2.465a.125.125 0 0 0-.14-.115l-.11.014-.128.016-.18.026-.202.031-.106.019-.108.02-.23.045-.243.055-.127.03-.129.033-.265.07-.272.083-.138.042-.138.048-.14.047a3.09 3.09 0 0 0-.138.05l-.277.106c-.092.036-.183.076-.273.113l-.136.058-.132.061-.132.061c-.043.02-.087.04-.129.062l-.25.127c-.083.04-.161.086-.239.128-.078.043-.154.084-.226.128l-.21.125c-.069.04-.132.082-.194.121l-.177.114-.156.107-.137.094-.114.083-.119.088a.124.124 0 0 0-.028.17l1.023 1.505a.124.124 0 0 0 .164.038l.092-.052.1-.056.121-.063.137-.071.155-.074c.054-.025.108-.054.168-.08l.181-.08c.062-.028.127-.052.193-.079.067-.026.133-.055.203-.08l.212-.076c.035-.013.072-.025.108-.036l.11-.036.11-.035.113-.033c.075-.02.15-.044.226-.063l.227-.056c.038-.01.076-.018.114-.026l.113-.023.112-.024c.037-.008.074-.013.111-.02l.219-.038.212-.03Zm-6.98 1.945-.08.115-.081.115c-.028.038-.053.078-.08.118l-.155.238-.149.242-.037.06-.035.062-.07.121c-.094.16-.176.325-.26.48l-.114.235-.055.113-.05.112-.097.215-.084.203c-.026.066-.053.128-.076.188l-.063.17-.056.15-.044.128-.044.131a.124.124 0 0 0 .073.156l.953.365a.125.125 0 0 0 .157-.062l.05-.104.052-.109.066-.126.074-.144c.026-.05.057-.102.087-.156l.095-.17.107-.178.056-.092.06-.094.125-.191c.09-.127.177-.26.276-.39l.073-.097.036-.05.038-.048.154-.193.158-.188c.027-.03.052-.062.08-.092l.081-.09.081-.09a2.2 2.2 0 0 1 .081-.086l.162-.168c.053-.055.109-.106.16-.158.054-.051.105-.102.157-.148l.15-.137c.049-.044.098-.084.144-.124l.133-.113.117-.093.103-.081.05-.04.05-.036.088-.067a.124.124 0 0 0 .02-.18L3.859 5.092a.124.124 0 0 0-.18-.01l-.081.078-.044.042-.05.05-.12.12-.137.139-.14.152c-.048.053-.1.107-.15.166l-.158.182c-.054.061-.107.128-.16.195-.055.067-.111.135-.165.206a445.443 445.443 0 0 0-.246.33Zm-1.97 4.456-.023.109-.025.125c-.01.047-.018.102-.028.159l-.031.181-.017.098-.013.101c-.018.138-.042.286-.055.444l-.024.243c-.007.083-.011.168-.017.254-.014.172-.016.35-.022.531L0 13.511v.068l.002.274v.069l.003.069.011.273.003.069v.021l.002.017.002.033.01.13.01.13.013.135.013.132.006.065.008.064.032.25.037.237c.01.078.025.152.038.224l.003.018a.124.124 0 0 0 .123.102h.336a.125.125 0 0 0 .124-.132 8.835 8.835 0 0 0-.004-.058c-.004-.07-.009-.142-.01-.216l-.008-.227-.002-.298.002-.06.002-.122.003-.123.006-.13.006-.131.002-.033V14.342v.003l.001-.004v-.008l.006-.063.02-.256.005-.064.008-.063.014-.128.015-.126.007-.063.01-.062c.025-.166.047-.33.079-.486l.043-.23.049-.219c.03-.143.068-.275.099-.398l.023-.09.025-.083.045-.153.041-.135.04-.122.036-.106a.125.125 0 0 0-.087-.16l-.841-.224a.124.124 0 0 0-.154.096Zm9.528 4.362a1.937 1.937 0 0 0 2.739-1.306l1.96-8.506.746-3.24.462-2.006c.054-.234-.132-.393-.318-.393a.305.305 0 0 0-.28.18l-.941 1.926-1.388 2.839-3.87 7.915a1.938 1.938 0 0 0 .89 2.591Zm.921-2.739a.95.95 0 1 1 0 1.9.95.95 0 0 1 0-1.9Z"/></svg>
